www/assets/images/icon_gear.svg

<svg fill="none" height="24" viewBox="0 0 24 24" width="24" xmlns="http://www.w3.org/2000/svg"><path clip-rule="evenodd" d="m9.95876 1h.39314 3.2964.3931l.0928.38203.4795 1.97493 1.6498.68337 1.7355-1.05738.3358-.20455.2779.27799 2.331 2.33094.278.27798-.2046.33573-1.0574 1.7355.6834 1.64982 1.9749.4795.382.09275v.39309 3.2965.3931l-.382.0928-1.9749.4795-.6834 1.6498 1.0574 1.7355.2046.3358-.278.2779-2.3309 2.331-.278.278-.3357-.2046-1.7356-1.0574-1.6498.6834-.4795 1.975-.0928.382h-.3931-3.2964-.39312l-.09276-.382-.47953-1.975-1.64982-.6834-1.73567 1.0575-.33572.2045-.27798-.278-2.33088-2.3308-.27798-.278.20454-.3357 1.05749-1.7357-.68338-1.6498-1.97506-.4796-.38203-.0927v-.3932-3.2963-.39314l.38203-.09276 1.97506-.47954.68338-1.64982-1.05746-1.73563-.20455-.33572.27799-.27798 2.33089-2.3309.27798-.27798.33573.20454 1.73562 1.05746 1.64982-.68337.47952-1.97493zm.78624 1-.4467 1.83969-.0599.24678-.2346.09718-2.11907.87775-.23462.09718-.21687-.13213-1.61678-.98505-1.77493 1.77493.98505 1.61677.13214.21687-.09719.23463-.87774 2.1191-.09719.2346-.24678.0599-1.83982.4467v2.5101l1.83982.4467.24678.0599.09719.2347.87774 2.119.09719.2347-.13214.2168-.98507 1.6168 1.77491 1.775 1.61682-.9851.21687-.1322.23462.0972 2.11907.8778.2346.0972.0599.2467.4467 1.8398h2.5102l.4467-1.8398.0599-.2467.2346-.0972 2.1191-.8778.2346-.0972.2169.1322 1.6167.985 1.7749-1.775-.985-1.6167-.1321-.2168.0972-.2347.8777-2.119.0972-.2347.2468-.0599 1.8396-.4466v-2.5102l-1.8396-.4467-.2468-.0599-.0972-.2346-.8777-2.1191-.0972-.23462.1321-.21688.985-1.61664-1.775-1.77498-1.6166.98497-.2169.13213-.2346-.09718-2.1191-.87775-.2346-.09718-.0599-.24678-.4467-1.83969zm-2.745 10c0-2.20914 1.79086-4 4-4 2.2091 0 4 1.79086 4 4 0 2.2091-1.7909 4-4 4-2.20914 0-4-1.7909-4-4zm4-3c-1.6569 0-3 1.3431-3 3s1.3431 3 3 3 3-1.3431 3-3-1.3431-3-3-3z" fill="#fff" fill-rule="evenodd"/></svg>

<svg width="24" height="24" viewBox="0 0 24 24" fill="none" xmlns="http://www.w3.org/2000/svg">
<path fill-rule="evenodd" clip-rule="evenodd" d="M9.95876 1H10.3519H13.6483H14.0414L14.1342 1.38203L14.6137 3.35696L16.2635 4.04033L17.999 2.98295L18.3348 2.7784L18.6127 3.05639L20.9437 5.38733L21.2217 5.66531L21.0171 6.00104L19.9597 7.73654L20.6431 9.38636L22.618 9.86586L23 9.95861V10.3517V13.6482V14.0413L22.618 14.1341L20.6431 14.6136L19.9597 16.2634L21.0171 17.9989L21.2217 18.3347L20.9437 18.6126L18.6128 20.9436L18.3348 21.2216L17.9991 21.017L16.2635 19.9596L14.6137 20.643L14.1342 22.618L14.0414 23H13.6483H10.3519H9.95878L9.86602 22.618L9.38649 20.643L7.73667 19.9596L6.001 21.0171L5.66528 21.2216L5.3873 20.9436L3.05642 18.6128L2.77844 18.3348L2.98298 17.9991L4.04047 16.2634L3.35709 14.6136L1.38203 14.134L1 14.0413V13.6481V10.3518V9.95866L1.38203 9.8659L3.35709 9.38636L4.04047 7.73654L2.98301 6.00091L2.77846 5.66519L3.05645 5.38721L5.38734 3.05631L5.66532 2.77833L6.00105 2.98287L7.73667 4.04033L9.38649 3.35696L9.86601 1.38203L9.95876 1ZM10.745 2L10.2983 3.83969L10.2384 4.08647L10.0038 4.18365L7.88473 5.0614L7.65011 5.15858L7.43324 5.02645L5.81646 4.0414L4.04153 5.81633L5.02658 7.4331L5.15872 7.64997L5.06153 7.8846L4.18379 10.0037L4.0866 10.2383L3.83982 10.2982L2 10.7449V13.255L3.83982 13.7017L4.0866 13.7616L4.18379 13.9963L5.06153 16.1153L5.15872 16.35L5.02658 16.5668L4.04151 18.1836L5.81642 19.9586L7.43324 18.9735L7.65011 18.8413L7.88473 18.9385L10.0038 19.8163L10.2384 19.9135L10.2983 20.1602L10.745 22H13.2552L13.7019 20.1602L13.7618 19.9135L13.9964 19.8163L16.1155 18.9385L16.3501 18.8413L16.567 18.9735L18.1837 19.9585L19.9586 18.1835L18.9736 16.5668L18.8415 16.35L18.9387 16.1153L19.8164 13.9963L19.9136 13.7616L20.1604 13.7017L22 13.2551V10.7449L20.1604 10.2982L19.9136 10.2383L19.8164 10.0037L18.9387 7.8846L18.8415 7.64998L18.9736 7.4331L19.9586 5.81646L18.1836 4.04148L16.567 5.02645L16.3501 5.15858L16.1155 5.0614L13.9964 4.18365L13.7618 4.08647L13.7019 3.83969L13.2552 2H10.745ZM8 12C8 9.79086 9.79086 8 12 8C14.2091 8 16 9.79086 16 12C16 14.2091 14.2091 16 12 16C9.79086 16 8 14.2091 8 12ZM12 9C10.3431 9 9 10.3431 9 12C9 13.6569 10.3431 15 12 15C13.6569 15 15 13.6569 15 12C15 10.3431 13.6569 9 12 9Z" fill="white"/>
</svg>
